packages/astro-components-stencil/src/icons/add-photo-alternate.svg

<svg xmlns="http://www.w3.org/2000/svg" viewBox="0 0 24 24"><g xmlns="http://www.w3.org/2000/svg" id="add-photo-alternate" fill-rule="nonzero">
            <path d="M21.02 5H19V2.98c0-.54-.44-.98-.98-.98h-.03c-.55 0-.99.44-.99.98V5h-2.01c-.54 0-.98.44-.99.98v.03c0 .55.44.99.99.99H17v2.01c0 .54.44.99.99.98h.03c.54 0 .98-.44.98-.98V7h2.02c.54 0 .98-.44.98-.98v-.04c0-.54-.44-.98-.98-.98zM16 9.01V8h-1.01c-.53 0-1.03-.21-1.41-.58-.37-.38-.58-.88-.58-1.44 0-.36.1-.69.27-.98H5c-1.1 0-2 .9-2 2v12c0 1.1.9 2 2 2h12c1.1 0 2-.9 2-2v-8.28c-.3.17-.64.28-1.02.28A2 2 0 0116 9.01zM15.96 19H6a.5.5 0 01-.4-.8l1.98-2.63c.21-.28.62-.26.82.02L10 18l2.61-3.48c.2-.26.59-.27.79-.01l2.95 3.68c.26.33.03.81-.39.81z"/>
        </g></svg>

<svg width="24" height="24" viewBox="0 0 24 24" fill="none" xmlns="http://www.w3.org/2000/svg">
<path fill-rule="evenodd" clip-rule="evenodd" d="M21.02 5H19V2.98C19 2.44 18.56 2 18.02 2H17.99C17.44 2 17 2.44 17 2.98V5H14.99C14.45 5 14.01 5.44 14 5.98V6.01C14 6.56 14.44 7 14.99 7H17V9.01C17 9.55 17.44 10 17.99 9.99H18.02C18.56 9.99 19 9.55 19 9.01V7H21.02C21.56 7 22 6.56 22 6.02V5.98C22 5.44 21.56 5 21.02 5ZM16 9.01V8H14.99C14.46 8 13.96 7.79 13.58 7.42C13.21 7.04 13 6.54 13 5.98C13 5.62 13.1 5.29 13.27 5H5C3.9 5 3 5.9 3 7V19C3 20.1 3.9 21 5 21H17C18.1 21 19 20.1 19 19V10.72C18.7 10.89 18.36 11 17.98 11C16.89 10.99 16 10.1 16 9.01ZM6 19H15.96C16.38 19 16.61 18.52 16.35 18.19L13.4 14.51C13.2 14.25 12.81 14.26 12.61 14.52L10 18L8.4 15.59C8.2 15.31 7.79 15.29 7.58 15.57L5.6 18.2C5.35 18.53 5.59 19 6 19Z" fill="black"/>
</svg>
